img/svg/favic.svg

<svg width="25" height="17" viewBox="0 0 25 17" fill="none" xmlns="http://www.w3.org/2000/svg">
<path fill-rule="evenodd" clip-rule="evenodd" d="M3.97196 15.2339C7.11752 15.2339 7.71028 12.4881 7.71028 10.2896C8.08388 10.2896 11.0364 10.2896 12.3832 10.2896C19.7086 10.2896 19.7105 0 12.6168 0C10.6874 0 9.44463 1.16127 9.11192 1.56581C5.15397 1.56581 4.6729 3.61896 4.6729 7.60558C4.6729 8.37469 4.6729 10.8748 4.6729 11.2599C4.6729 12.1972 4.29346 12.8054 3.2708 12.8054C2.39767 12.8054 1.98411 12.0378 1.63528 10.9607C1.45351 11.0576 0.177103 11.743 0 11.8554C0.386215 12.9315 0.799767 15.2339 3.97196 15.2339ZM8.41916 6.03955C9.61752 6.03955 9.71939 7.82905 8.33435 7.82905C7.16682 7.82905 7.1972 6.03955 8.41916 6.03955ZM12.6171 11.4021C11.6042 11.4021 8.64486 11.1844 8.64486 11.1844V16.7012L11.4486 16.741L12.1495 12.7502L21.028 12.5846L21.2619 16.96L24.5329 17C24.5329 17 25 8.42989 25 6.71061C25 3.52158 23.5629 1.71663 20.3271 1.56581C19.5164 1.52805 18.4556 1.37789 17.757 1.34212C20.8021 5.0207 18.3792 11.4021 12.6171 11.4021ZM18.2245 13.639L18.4579 16.8805L20.3271 16.9205L20.0935 13.639H18.2245ZM12.3832 16.7812L14.2523 16.8209L14.7194 13.639H13.0839L12.3832 16.7812Z" fill="#FF862F"/>
</svg>

<svg width="25" height="17" fill="none" xmlns="http://www.w3.org/2000/svg">
    <path fill-rule="evenodd" clip-rule="evenodd" d="M3.972 15.234c3.146 0 3.738-2.746 3.738-4.944h4.673c7.326 0 7.328-10.29.234-10.29-1.93 0-3.172 1.161-3.505 1.566-3.958 0-4.44 2.053-4.44 6.04v3.654c0 .937-.379 1.545-1.401 1.545-.873 0-1.287-.767-1.636-1.844-.181.097-1.458.782-1.635.894.386 1.076.8 3.379 3.972 3.379ZM8.419 6.04c1.199 0 1.3 1.789-.085 1.789-1.167 0-1.137-1.79.085-1.79Zm4.198 5.362c-1.013 0-3.972-.218-3.972-.218v5.517l2.804.04.7-3.99 8.879-.166.234 4.375 3.27.04S25 8.43 25 6.71c0-3.188-1.437-4.993-4.673-5.144-.81-.038-1.871-.188-2.57-.224 3.045 3.679.622 10.06-5.14 10.06Zm5.607 2.237.234 3.242 1.87.04-.235-3.282h-1.869Zm-5.84 3.142 1.868.04.467-3.182h-1.635l-.7 3.142Z" fill="#FF862F"/>
</svg>
